!!!!SEGMENT: pl-kk--kk-i-1--049-002_szadek-tomasz--offitium-in-melodiam-motetae-pisneme-et-in-terra.krn
!!!cenid: 15xx:766
!!!COM: Szadek, Tomasz
!!!COM-rismid: pe30020506
!!!CDT:
!!!CNT:
!!!OPR: Offitium in melodiam motetae Pisneme
!!!OTL: Et in terra
!!!OMV: 002
!!!PDT:
!!!AGN:
!!!SMS-siglum: PL-Kk
!!!SMS-shelfmark: Kk.I.1
!!!SMS-shelfwork: 049-002 M
!!!SMS-variant:
!!!SMS-altvar:
!!!NIFC-rismid: 300258003
!!!URL-scan: http://repozytorium.nifc.pl/skany/pl-kk-nut--i-1
!!!ONB-nifc: UWAGA: Cantus (s. 152v-160r, skan 0155-0162), Altus (s. 148r-156r, skan 0341-0349), Tenor (s. 127v-136r, skan 0518-0526), Bassus (s. 139v-146v, skan 0702-0709). Części Mszy: 1. Kyrie, 2. Et in terra, 3. Patrem, 4. Sanctus, 5. Agnus Dei
**kern	**text	**kern	**text	**kern	**text	**kern	**text
*part4	*part4	*part3	*part3	*part2	*part2	*part1	*part1
*staff4	*staff4	*staff3	*staff3	*staff2	*staff2	*staff1	*staff1
*Iempty	*	*Itenor	*	*Iempty	*	*Iempty	*
*I"BASSVS	*	*I"TENOR	*	*I"ALTVS	*	*I"CANTVS	*
*I'B	*	*I'T	*	*I'A	*	*I'C	*
*ICvox	*	*ICvox	*	*ICvox	*	*ICvox	*
*clefF4	*	*clefC3	*	*clefC3	*	*clefC2	*
*k[b-]	*	*k[b-]	*	*k[b-]	*	*k[b-]	*
*F:	*	*F:	*	*F:	*	*F:	*
*M2/1	*	*M2/1	*	*M2/1	*	*M2/1	*
*met(C)	*	*met(C)	*	*met(C)	*	*met(C)	*
=1-	=1-	=1-	=1-	=1-	=1-	=1-	=1-
!	!	!	!	!	!	!LO:SIC:v:t=powtórzony bemol	!
00r	.	0r	.	1d\	ET	0r	.
.	.	.	.	2g\	in	.	.
.	.	.	.	1g\	ter-	.	.
=2-	=2-	=2-	=2-	=2-	=2-	=2-	=2-
.	.	1G/	Et	.	.	1r	.
.	.	.	.	2g\	-ra	.	.
.	.	2d\	in	2f\	pax	2r	.
.	.	1d\	ter-	1f\	ho-	2d/	ET
=3-	=3-	=3-	=3-	=3-	=3-	=3-	=3-
0r	.	.	.	.	.	2a\	in
.	.	2d\	-ra	2f\	-(mi-	1a\	ter-
.	.	2c/	pax	2e\	-n)i-	.	.
.	.	2G/	ho-	4d\	-bus	2g\	-ra
.	.	.	.	4e\	.	.	.
=4-	=4-	=4-	=4-	=4-	=4-	=4-	=4-
1r	.	2d\	-mi-	4f\	.	2b-\	pax
.	.	.	.	4d\	.	.	.
.	.	2e-X\	-ni-	1g\	.	2cc\	ho-
1D\	ET	1d\	-bus	.	.	2.a\	-(mi-
.	.	.	.	2f\	.	.	.
.	.	.	.	.	.	4a\	-n)i-
=5-	=5-	=5-	=5-	=5-	=5-	=5-	=5-
2G\	in	2r	.	1g\	.	2g\	-bus
*	*	*	*ij	*	*	*	*ij
1G\	ter-	2G/	et	.	.	1b-\	pax
.	.	2d\	in	2r	.	.	.
*	*	*custos:c	*	*	*	*	*
*	*	*	*	*	*ij	*	*
2B-\	-ra	2d\	ter-	2f\	et	2b-\	ho-
!	!	!LO:LB:g=original	!	!	!	!	!
=6-	=6-	=6-	=6-	=6-	=6-	=6-	=6-
2.F\	pax	4c/	-ra	2f\	in	4a\	-(mi-
.	.	4B-/	.	.	.	4g\	.
.	.	4c/	.	2.f\	ter-	4a\	.
4BB-/	ho-	4d/	.	.	.	4b-\	.
2F\	-mi-	2c/	pax	.	.	2a\	.
.	.	.	.	4e\	.	.	.
*	*	*	*	*custos:c	*	*	*
2G\	-ni-	2B-/	ho-	1d\	-ra	2g\	-n)i-
!	!	!	!	!LO:PB:g=original	!	!	!
=7-	=7-	=7-	=7-	=7-	=7-	=7-	=7-
*	*	*	*	*	*	*custos:d	*
2D/	-bus	2.A/	-mi-	.	.	0f\	-bus
*	*ij	*	*	*	*	*	*Xij
4F\	ho-	.	.	2c/	pax	.	.
4E\	.	4G/	.	.	.	.	.
4D/	-mi-	4F/	.	2B-/	ho-	.	.
4C/	.	4E/	.	.	.	.	.
4BB-/	.	1F/	.	1A/	-(mi-	.	.
4AA/	.	.	.	.	.	.	.
=8-	=8-	=8-	=8-	=8-	=8-	=8-	=8-
1BB-/	-ni-	.	.	.	.	1d/	bo-
.	.	4E/	-ni-	2G/	-n)i-	.	.
.	.	4D/	.	.	.	.	.
1AA/	-bus	2A/	-bus	2A/	-bus	4c/	-n(ae)
*	*Xij	*	*Xij	*	*Xij	*	*
.	.	.	.	.	.	4d/	.
.	.	2A/	bo-	2c/	bo-	4e/	.
.	.	.	.	.	.	4f/	.
=9-	=9-	=9-	=9-	=9-	=9-	=9-	=9-
0r	.	2G/	-n(ae)	2d\	-n(ae)	2g\	vo-
.	.	2A/	vo-	2.f\	vo-	2c/	-lun-
.	.	2B-/	-lun-	.	.	1d/	-ta-
.	.	.	.	4e\	.	.	.
!	!	!	!	!LO:TX:t=P:problem=kreska pseudotaktowa niepełna - notowana jak oddech	!	!	!
!	!	!	!	!LO:TX:t=P:problem=kreska pseudotaktowa	!	!	!
.	.	2B-/	-ta-	1d\	-lun-	.	.
=10-	=10-	=10-	=10-	=10-	=10-	=10-	=10-
2r	.	1A/	-tis	.	.	1e\	-tis
2A\	bo-	.	.	2c\	-ta-	.	.
*	*	*	*ij	*	*	*	*ij
2.G\	-n(ae)	2.d\	vo-	2d\	-tis	2.g\	bo-
.	.	.	.	4B-/	vo-	.	.
4A\	vo-	4c/	.	4c/	.	4f\	-n(ae)
=11-	=11-	=11-	=11-	=11-	=11-	=11-	=11-
2B-\	-lu(n)-	4B-/	.	4d\	.	2f\	vo-
.	.	4c/	.	4e\	.	.	.
*custos:A	*	*	*	*	*	*	*
2B-\	-ta-	4d/	.	4f\	.	1d/	-lun-
*	*	*custos:f	*	*	*	*	*
.	.	4eny/	.	4g\	.	.	.
!LO:LB:g=original	!	!LO:PB:g=original	!	!	!	!	!
1A\	-tis	2f\	-lun-	2a\	-lun-	.	.
.	.	2e\	-ta-	2a\	-ta-	2c/	-ta-
=12-	=12-	=12-	=12-	=12-	=12-	=12-	=12-
1D\	Lau-	2d\	-tis	2f\	-tis	2d/	-tis
*	*	*	*Xij	*	*	*	*Xij
.	.	2A/	Lau-	2d\	Lau-	2a\	lau-
2.G\	-da-	2.B-/	-da-	2.d\	-da-	2.g\	-da-
*	*	*	*	*custos:g	*	*	*
4G\	-mus	4B-/	-mus	4d\	-m(us)	4g\	-m(us)
!	!	!	!	!LO:LB:g=original	!	!	!
=13-	=13-	=13-	=13-	=13-	=13-	=13-	=13-
2G\	te	2B-/	te	2g\	te	1b-\	te
2B-\	b(e)-	2d\	be-	1f\	be-	.	.
2F\	-n(e)-	2c/	-ne-	.	.	2a\	be-
*	*	*	*	*	*	*custos:a	*
2G\	-di-	2B-/	-di-	2d\	-ne-	2b-\	-ne-
!	!	!	!	!	!	!LO:LB;g=original	!
=14-	=14-	=14-	=14-	=14-	=14-	=14-	=14-
2C/	-ci-	4c/	  ci-	2e\	-di-	4a\	-di-
.	.	4B-/	.	.	.	4g\	.
2E-X\	-mus	4A/	-mus	2c\	-ci-	2.g\	-ci-
.	.	4G/	.	.	.	.	.
1D\	te	1A/	te	1d\	-m(us)	.	.
.	.	.	.	.	.	8f/L	.
.	.	.	.	.	.	8e/J	.
.	.	.	.	.	.	2f\	-mus
=15-	=15-	=15-	=15-	=15-	=15-	=15-	=15-
2r	.	2G/	.	2d\	te	2g\	te
2D/	A-	2F/	a-	2A/	a-	2d/	a-
4BB-/	-do-	1B-/	-do-	1d\	-do-	2f\	-do-
4C/	.	.	.	.	.	.	.
4D/	.	.	.	.	.	2.f\	-ra-
4Eny/	.	.	.	.	.	.	.
=16-	=16-	=16-	=16-	=16-	=16-	=16-	=16-
2F\	-ra-	2A/	-ra-	2c/	-ra-	.	.
.	.	.	.	.	.	4e/	.
2G\	-m(us)	2G/	-mus	2B-/	-mus	4d/	.
.	.	.	.	.	.	4c/	-mus
2D/	te	2F/	te	2A/	te	2d/	te
2D/	glo-	2A/	glo-	2d\	Glo-	2a\	Glo-
=17-	=17-	=17-	=17-	=17-	=17-	=17-	=17-
4BB-/	-ri-	1d\	-ri-	2f\	-ri-	1b-\	-ri-
4C/	.	.	.	.	.	.	.
4D/	.	.	.	2.f\	-fi-	.	.
*custos:F	*	*	*	*	*	*	*
4E/	.	.	.	.	.	.	.
!LO:LB:g=original	!	!	!	!	!	!	!
2F\	-fi-	2c/	-fi-	.	.	2a\	-fi-
.	.	.	.	4e\	-ca-	.	.
*	*	*custos:A	*	*	*	*	*
2G\	-ca-	2B-/	-ca-	4d\	-mus	1g\	-ca-
.	.	.	.	4c\	.	.	.
!	!	!LO:LB:g=original	!	!	!	!	!
=18-	=18-	=18-	=18-	=18-	=18-	=18-	=18-
1D\	-mus	1A/	-mus	1d\	.	.	.
.	.	.	.	.	.	2f\	-mus
1GG/	te	1G/	te	1d\	te	1g\	te
=19-	=19-	=19-	=19-	=19-	=19-	=19-	=19-
00r	.	2.d\	Gra-	2.f\	Gra-	2.a\	Gra-
*	*	*	*	*custos:e	*	*	*
.	.	4d\	-(ti)-	4f\	-ti-	4a\	-ti-
!	!	!	!	!LO:LB:g=original	!	!	!
.	.	2A/	-as	2e\	-as	2a\	-as
*	*	*	*	*	*	*custos:f#	*
.	.	2c/	a-	2.e\	a-	2g\	a-
=20-	=20-	=20-	=20-	=20-	=20-	=20-	=20-
.	.	2d\	-gi-	.	.	2f#X\	-gi-
.	.	.	.	4d\	-gi-	.	.
.	.	2G/	-mus	1d\	-mus	2g\	-mus
.	.	1A/	ti-	.	.	1e\	ti-
.	.	.	.	2c\	ti-	.	.
=21-	=21-	=21-	=21-	=21-	=21-	=21-	=21-
2.G\	Gra-	2B-/	-bi	2d\	-bi	2d/	-bi
*	*	*	*	*	*ij	*	*ij
.	.	2.d\	Gra-	2g\	a-	2.b-\	a-
4G\	-ti-	.	.	.	.	.	.
2D/	-as	.	.	2.f\	.	.	.
.	.	4d\	-ti-	.	.	4a\	.
2F\	a-	2c/	-as	.	.	2.a\	-gi-
.	.	.	.	4e\	-gi-	.	.
=22-	=22-	=22-	=22-	=22-	=22-	=22-	=22-
2G\	-gi-	2B-/	.	2d\	-mu	.	.
.	.	.	.	.	.	4g\	.
2C/	-mus	4c/	.	2e-X\	.	1g\	-mus
.	.	4B-/	.	.	.	.	.
1D\	ti-	4A/	.	1d\	ti-	.	.
.	.	4G/	.	.	.	.	.
.	.	2A/	.	.	.	2f\	ti-
=23-	=23-	=23-	=23-	=23-	=23-	=23-	=23-
2GG/	-bi	2G/	.	2d\	-bi	2g\	-bi
*	*	*	*	*	*Xij	*	*Xij
2G\	prop-	2B-/	prop-	2g\	prop-	2d/	prop-
2G\	-ter	2B-/	-ter	2g\	-ter	2d/	-ter
1F\	ma-	1c\	ma-	1a\	.	1f\	.
=24-	=24-	=24-	=24-	=24-	=24-	=24-	=24-
*	*	*custos:B-	*	*	*	*	*
2G\	-gna(m)	2B-/	-gna(m)	2g\	ma-	2d/	ma-
!	!	!LO:LB:g=original	!	!	!	!	!
2G\	glo-	2B-/	glo-	4d\	-gna(m)	2g\	-gna(m)
.	.	.	.	4eny\	.	.	.
2D/	-ri-	4A/	-ri-	4f\	glo-	2f\	glo-
.	.	4B-/	.	4g\	.	.	.
=25-	=25-	=25-	=25-	=25-	=25-	=25-	=25-
2C/	-a(m)	4c/	.	4a\	-ri-	2e\	-ri-
*	*	*	*	*custos:g	*	*	*
.	.	4B-/	.	4g\	.	.	.
*custos:D	*	*	*	*	*	*	*
!	!	!	!	!LO:LB:g=original	!	!	!
2E-X\	tu-	4A/	.	1g\	-am	2c/	-a(m)
.	.	4G/	-am	.	.	.	.
!LO:PB:g=original	!	!	!	!	!	!	!
1D\	-am	1A/	tu-	.	.	2.d/	tu-
.	.	.	.	2f\	tu-	.	.
.	.	.	.	.	.	4c/	.
=26-	=26-	=26-	=26-	=26-	=26-	=26-	=26-
2.G\	.	2G/	-am	1g\	-a(m)	4B-/	.
.	.	.	.	.	.	4A/	.
*	*	*	*	*	*	*custos:G	*
.	.	2.d\	Do-	.	.	2B-/	.
4F\	.	.	.	.	.	.	.
1Eny\	.	.	.	2r	.	2G/	-am
.	.	4d\	-mi-	.	.	.	.
*	*	*	*	*	*ij	*	*
.	.	2c\	-ne	2G/	ma-	2.g\	Do-
=27-	=27-	=27-	=27-	=27-	=27-	=27-	=27-
1D\	.	1d\	de-	2B-/	.	.	.
.	.	.	.	.	.	4g\	  mi-
.	.	.	.	2A/	-gna(m)	2f\	-ne
2r	.	1G/	-us	2.d\	glo-	1g\	de-
2.G\	Do-	.	.	.	.	.	.
.	.	.	.	4c/	-ri-	.	.
=28-	=28-	=28-	=28-	=28-	=28-	=28-	=28-
.	.	2r	.	2B-/	 am	2d/	-us
4G\	-mi-	.	.	.	.	.	.
*	*	*	*ij	*	*	*	*
2F\	-ne	2.c/	Do-	2A/	tu-	2f/	rex
1G\	de-	.	.	2G/	-a(m)	2e-X/	.
*	*	*	*	*	*Xij	*	*
.	.	4c/	-mi-	.	.	.	.
.	.	2B-/	-ne	2.g\	Do-	2d/	c(oe)-
=29-	=29-	=29-	=29-	=29-	=29-	=29-	=29-
2C/	-us	2c/	de-	.	.	2e-X/	-le-
.	.	.	.	4g\	  mi-	.	.
2D/	rex	2A/	-us	2f\	-ne	4d/	.
*	*	*	*Xij	*	*	*	*
.	.	.	.	.	.	4c/	.
2E-X/	c(oe)-	2G/	rex	1g\	de-	2B-/	.
2C/	-leſ-	1G/	coe-	.	.	2c/	-stis
=30-	=30-	=30-	=30-	=30-	=30-	=30-	=30-
1D\	-tis	.	.	2d\	-us	4B-/	.
.	.	.	.	.	.	4A/	.
.	.	2F/	-leſ-	2f\	rex	1d/	de-
1r	.	2G/	-tis	2e\	coe-	.	.
*	*	*custos:B-	*	*custos:d	*	*	*
!	!	!	!	!LO:TX:t=P:problem=kreska pseudotaktowa	!	!	!
.	.	2A/	de-	2e\	-le-	2c/	-us
!	!	!LO:LB:g=original	!	!LO:PB:g=original	!	!	!
=31-	=31-	=31-	=31-	=31-	=31-	=31-	=31-
2r	.	2.B-/	-us	0d\	-ſtis	2d/	pa-
1G\	de-	.	.	.	.	2G/	-ter
.	.	4c/	.	.	.	.	.
.	.	4d\	.	.	.	2B-/	o(m-
.	.	4e\	.	.	.	.	.
*	*	*	*	*	*	*custos:G	*
2F\	-us	2f\	rex	.	.	2A/	-n)i-
=32-	=32-	=32-	=32-	=32-	=32-	=32-	=32-
2G\	p(a-	2d\	coe-	2r	.	2B-/	.
2C/	-te)r	2e-X\	-leſ-	1g\	De-	4c/	-po-
.	.	.	.	.	.	4B-/	.
1D\	om-	1d\	-tis	.	.	4A/	.
.	.	.	.	.	.	4G/	.
.	.	.	.	2f\	-us	2A/	.
=33-	=33-	=33-	=33-	=33-	=33-	=33-	=33-
2E-X/	-ni-	2r	.	2g\	p(a-	1G/	-tens
*custos:G	*	*	*	*	*	*	*
2C/	-po-	1c\	De-	2c/	-te)r	.	.
!LO:LB:g=original	!	!	!	!	!	!	!
1G\	-tens	.	.	1d\	o(m-	2r	.
.	.	2B-/	-us	.	.	1g\	/de-
=34-	=34-	=34-	=34-	=34-	=34-	=34-	=34-
2r	.	2c/	pa-	2e-X\	-n)i-	.	.
*	*ij	*	*	*	*	*	*
2D/	om-	2A/	-ter	2d\	-po-	2f\	-us
2G\	-ni-	2B-/	om-	2d\	-tens	2g\	pa-
!	!	!	!	!	!	!LO:TX:t=P:problem=kreska pseudotaktowa niepełna - notowana jak oddech	!
!	!	!	!	!LO:TX:t=P:problem=kreska pseudotaktowa	!	!LO:TX:t=P:problem=kreska pseudotaktowa	!
4F\	-po-	4A/	-ni-	1g\	.	2c/	-ter
!	!	!LO:TX:t=P:problem=kreska pseudotaktowa	!	!	!	!	!
4Eny\	.	4G/	.	.	.	.	.
=35-	=35-	=35-	=35-	=35-	=35-	=35-	=35-
1D\	-tens	1A/	-po-	.	.	2.d/	o(m-
.	.	.	.	2f\	.	.	.
.	.	.	.	.	.	4c/	.
2r	.	1G/	-tens	2g\	.	4B-/	-n)i-
.	.	.	.	.	.	4A/	.
!	!	!	!	!	!	!LO:TX:t=P:problem=kreska pseudotaktowa	!
1G\	de-	.	.	2d\	.	2B-/	.
=36-	=36-	=36-	=36-	=36-	=36-	=36-	=36-
*	*	*	*ij	*	*	*	*
!	!	!	!	!LO:TX:t=P:problem=kreska pseudotaktowa niepełna - notowana jak oddech	!	!	!
.	.	1c\	De-	2eny\	.	1A/	-po-
2F\	-us	.	.	2f\	.	.	.
2G\	p(a-	2B-/	-us	2d\	.	1G/	-tens
*	*	*	*	*	*	*	*Xij
2C/	-te)r	2c/	pa-	2e-X\	.	.	.
=37-	=37-	=37-	=37-	=37-	=37-	=37-	=37-
2D/	om-	2A/	-ter	2d\	.	2r	.
*	*	*custos:B-	*	*	*	*	*
2E\	-ni-	2G/	om-	2c/	.	1g\	om-
*	*	*	*	*custos:B	*	*	*
!	!	!LO:PB:g=original	!	!	!	!	!
1D\	-po-	2B-/	-ni-	1d\	.	.	.
.	.	2A/	-po-	.	.	2f\	-ni-
!	!	!	!	!LO:LB:g=original	!	!	!
=38-	=38-	=38-	=38-	=38-	=38-	=38-	=38-
*	*	*	*	*	*	*custos:g	*
!	!	!	!	!LO:N:acc=#	!	!	!
!	!	!	!	!LO:TX:t=P:problem=# below	!	!	!
0G\	-tens./	2G/	-tens	1.Bn/	Do-	1g\	-po-
*	*Xij	*	*Xij	*	*	*	*
.	.	2d\	do-	.	.	.	.
!	!	!	!	!	!	!LO:PB:g=original	!
.	.	2d\	-mi-	.	.	1g\	-tens
.	.	2d\	-ne	2d\	-mi-	.	.
=39-	=39-	=39-	=39-	=39-	=39-	=39-	=39-
0r	.	2.f\	fi-	2d\	-ne	2r	.
.	.	.	.	2d\	fi-	2a\	Do-
.	.	4eny\	-li	.	.	.	.
.	.	2d\	.	2f\	-li	2a\	-mi-
.	.	2c\	v-	2eny\	v-	2a\	-ne
=40-	=40-	=40-	=40-	=40-	=40-	=40-	=40-
2r	.	2d\	-ni-	2f\	-ni-	2.b-\	fi-
2G\	Do-	4G/	-ge-	2g\	-ge-	.	.
.	.	4A/	.	.	.	4a\	-li
2G\	-mi-	4B-/	.	1d\	-ni-	1g\	.
.	.	4c/	.	.	.	.	.
2G\	-ne	4d\	.	.	.	.	.
.	.	4e\	.	.	.	.	.
=41-	=41-	=41-	=41-	=41-	=41-	=41-	=41-
2.B-\	fi-	2.d\	-ni-	2B-y/	-te	2f\	V-
.	.	.	.	2G/	.	4g\	.
4A\	-li	4c/	-te	.	.	4a\	.
*	*	*	*	*	*ij	*	*
2G\	v-	2B-/	.	2d\	v-	2b-\	-ni-
*custos:G	*	*	*	*	*	*	*
*	*	*	*ij	*	*	*	*
2F\	.	2c/	v-	2f\	-ni-	2.a\	-ge-
!LO:LB:g=original	!	!	!	!	!	!	!
=42-	=42-	=42-	=42-	=42-	=42-	=42-	=42-
2G\	-ni-	2B-/	-ni-	2d\	-ge-	.	.
.	.	.	.	.	.	4g\	.
2E\	-ge-	4A/	-ge-	2c\	-ni-	1g\	.
.	.	4G/	.	.	.	.	.
1D\	-ni-	1A/	-ni-	0d\	-te	.	.
*	*	*	*	*	*Xij	*	*
.	.	.	.	.	.	2f\	-ni-
=43-	=43-	=43-	=43-	=43-	=43-	=43-	=43-
*	*	*custos:A	*	*	*	*	*
1G\	-te	1B-/	.	.	.	1g\	-te
!	!	!LO:LB:g=original	!	!	!	!	!
!	!	!	!	!	!	!LO:TX:t=P:problem=# below	!
1D\	Je-	1A/	-te	2.d\	Je-	1f#X\	Ie-
*	*	*	*Xij	*	*	*	*
.	.	.	.	4c\	-ſu	.	.
=44-	=44-	=44-	=44-	=44-	=44-	=44-	=44-
2G\	-ſu	2B-/	Je-	4d\	.	2g\	-ſu
*	*	*	*	*custos:f	*	*	*
.	.	.	.	4e\	.	.	.
!	!	!	!	!LO:LB:g=original	!	!	!
1F\	Chr(i-	4A/	.	1f\	.	2.a\	Chri-
.	.	4B-/	-ſu	.	.	.	.
.	.	4c/	.	.	.	.	.
.	.	4B-/	.	.	.	4g\	.
2E\	-st)e	4A/	.	2c/	.	1g\	.
.	.	4G/	.	.	.	.	.
=45-	=45-	=45-	=45-	=45-	=45-	=45-	=45-
1D\	.	1A/	chr(i-	1d\	.	.	.
.	.	.	.	.	.	2fny\	-ſte.
*	*	*	*	*	*	*custos:b-	*
*	*ij	*	*	*	*	*	*
2.E\	Je-	[y0.G/;l	-st)e	1B-/	Chri-	[y0.g\;<l	.
4D/	.	.	.	.	.	.	.
=46-	=46-	=46-	=46-	=46-	=46-	=46-	=46-
2C/	.	.	.	2c/	-ste	.	.
2BB-/	-ſu	.	.	2d\	.	.	.
1C/	Chr(i-	.	.	1e\	.	.	.
=47-	=47-	=47-	=47-	=47-	=47-	=47-	=47-
0GG/;l	-st)e	0G/yy]	.	0d\;<l	.	0g\]yy	.
*	*Xij	*	*	*	*	*	*
!	!	!	!	!	!	!LO:LB:g=original	!
=48-	=48-	=48-	=48-	=48-	=48-	=48||-	=48||-
00r	.	0r	.	2.g\	Do-	1r	.
.	.	.	.	4g\	-mi-	.	.
.	.	.	.	2g\	-ne	2.b-\	Do-
.	.	.	.	2g\	de-	.	.
.	.	.	.	.	.	4b-\	-mi-
=49-	=49-	=49-	=49-	=49-	=49-	=49-	=49-
.	.	2.d\	Do-	2d\	-us	2.a\	.
.	.	.	.	4f\	a-	.	.
.	.	4d\	-mi-	4e\	.	4g\	-ne
.	.	2d\	-ne	4f\	.	4f\	.
.	.	.	.	4g\	.	4eny\	.
.	.	2d\	de-	2.a\	.	2f/	.
=50-	=50-	=50-	=50-	=50-	=50-	=50-	=50-
0r	.	2A/	-us	.	.	2e/	.
.	.	.	.	4g\	.	.	.
.	.	2c/	a-	1g\	-gnus	2e/	de-
.	.	1d\	-gnus	.	.	2d/	-us
.	.	.	.	2f\	de-	2a\	a-
=51-	=51-	=51-	=51-	=51-	=51-	=51-	=51-
*	*	*	*	*custos:g	*	*	*
2.G\	Do-	2d\	de-	1g\	-i	1.b-\	-gnus
.	.	2B-/	-i	.	.	.	.
4G\	-mi-	.	.	.	.	.	.
!	!	!	!	!LO:LB:g=original	!	!	!
*	*	*	*	*	*ij	*	*
2G\	-ne	2e-X\	fi-	1g\	Do-	.	.
2G\	de-	2.d\	.	.	.	2g\	de-
=52-	=52-	=52-	=52-	=52-	=52-	=52-	=52-
2D/	-us	.	.	1f\	-mi-	1a\	-i
.	.	4c/	-li-	.	.	.	.
*custos:G	*	*	*	*	*	*	*
2F\	a-	1c\	-us	.	.	.	.
!LO:LB:g=original	!	!	!	!	!	!	!
*	*	*	*	*	*	*	*ij
1G\	-nus	.	.	1d\	-ne	2.g\	Do-
*	*	*custos:c	*	*	*	*	*
.	.	2B-/	pa-	.	.	.	.
.	.	.	.	.	.	4g\	-mi-
!	!	!LO:LB:g=original	!	!	!	!	!
=53-	=53-	=53-	=53-	=53-	=53-	=53-	=53-
1C/	de-	1c\	-tris	4e\	de-	2g\	 ne
.	.	.	.	4f\	.	.	.
.	.	.	.	4g\	.	2g\	de-
.	.	.	.	4e\	.	.	.
*	*	*	*ij	*	*	*	*
2D/	-i	1A/	a-	4f\	-us	2d/	-us
.	.	.	.	4g\	.	.	.
*	*	*	*	*	*	*custos:g	*
2D/	fi-	.	.	2.a\	a-	2f\	a-
!	!	!	!	!	!	!LO:LB:g=original	!
=54-	=54-	=54-	=54-	=54-	=54-	=54-	=54-
2C/	-li-	4c/	.	.	.	2g\	-gnus
.	.	4B-/	.	4g\	.	.	.
2E/	-us	4A/	-gnus	1g\	-gnus	2c/	de-
.	.	4G/	.	.	.	.	.
1D\	pa-	1A/	de-	.	.	2d/	-i
*	*	*	*	*	*	*	*Xij
.	.	.	.	2f\	de-	2d/	fi-
=55-	=55-	=55-	=55-	=55-	=55-	=55-	=55-
2G\	-tris	2B-/	-i	1g\	-i	2B-/	-li-
*	*	*	*Xij	*	*Xij	*	*
2C/	.	1G/	fi-	.	.	2e-X/	-us
1E-X\	.	.	.	2r	.	1d/	pa-
.	.	2F/	-li-	2d\	fi-	.	.
=56-	=56-	=56-	=56-	=56-	=56-	=56-	=56-
2E-\	.	2.G/	-us	2B-/	-li-	2G/	-tris
*	*	*	*	*	*	*	*ij
2C/	.	.	.	2e-X\	-us	2.g\	fi-
.	.	4A/	.	.	.	.	.
*lig	*	*	*	*	*	*	*
1D\	.	2B-/	p(at)-	1d\	p(at)-	.	.
.	.	.	.	.	.	8f\L	.
.	.	.	.	.	.	8e\J	.
.	.	2A/	-ris	.	.	2f\	-li-
=57-	=57-	=57-	=57-	=57-	=57-	=57-	=57-
1E-\	.	2r	.	2G/	-ris	1g\	-us
*	*	*	*	*	*ij	*	*
.	.	2G/	qui	1g\	fi-	.	.
*Xlig	*	*	*	*	*	*	*
1D\	.	1d\	tol-	.	.	0a\	pa-
.	.	.	.	4f\	-li-	.	.
*	*	*	*	*custos:f	*	*	*
.	.	.	.	4eny\	.	.	.
!	!	!	!	!LO:PB:g=original	!	!	!
=58-	=58-	=58-	=58-	=58-	=58-	=58-	=58-
*	*	*	*	*stria6	*	*	*
!	!	!	!	!LO:TX:t=P:problem=od tego miejsca jest sześciolinia	!	!	!
2r	.	2d\	-lis	2f\	-us	.	.
2D/	Qui	2A/	pec-	2f\	p(at)-	.	.
1G\	tol-	1.B-/	-ca-	2g\	-ris	1d/	-tris
*	*	*	*	*	*Xij	*	*Xij
.	.	.	.	2G/	Qui	.	.
=59-	=59-	=59-	=59-	=59-	=59-	=59-	=59-
2G\	-lis	.	.	1d\	tol-	2r	.
*custos:F	*	*	*	*	*	*	*
2D\	pec-	2A/	-ta	.	.	2d/	Qui
!LO:PB:g=original	!	!	!	!	!	!	!
2.F\	-ca-	1A/	mun-	2d/	-lis	1a\	tol-
.	.	.	.	2c/	p(ec)-	.	.
4Eny/	-ta	.	.	.	.	.	.
=60-	=60-	=60-	=60-	=60-	=60-	=60-	=60-
2D/	.	2F/	-di	2B-/	-c(a)-	2d/	-lis
*	*	*custos:d	*	*	*	*custos:f	*
2C/	mun-	2A/	qui	1A/	-ta	2e/	pec-
!	!	!LO:LB:g=original	!	!	!	!LO:LB:g=original	!
1BB-/	.	1d\	.	.	.	2f/	-ca-
.	.	.	.	2G/	mun-	2d/	-ta
=61-	=61-	=61-	=61-	=61-	=61-	=61-	=61-
1AA/	-di	2c/	.	1A/	-di	2f/	mun-
.	.	2c/	.	.	.	2e/	-di
1A\	mi-	2c/	.	2r	.	1e\	mi-
.	.	2A/	.	2c/	mi-	.	.
=62-	=62-	=62-	=62-	=62-	=62-	=62-	=62-
2G\	-ſe-	2B-/	.	2d/	-ſe-	2g\	-ſe-
2A\	-re-	2c/	.	2.f\	-re-	2c/	-re-
2B-\	-re	1r	.	.	.	1d/	-re
.	.	.	.	4e\	-re	.	.
2B-\	no-	.	.	1d\	no-	.	.
=63-	=63-	=63-	=63-	=63-	=63-	=63-	=63-
1A\	-bis	2r	.	.	.	2.e\	no-
.	.	2A/	mi-	2c/	-bis	.	.
.	.	.	.	.	.	4f\	.
0r	.	2.G/	-ſe-	2d/	.	2g\	.
*	*	*	*	*	*ij	*	*
.	.	.	.	2g\	mi-	2.e/	.
.	.	4A/	-re-	.	.	.	.
=64-	=64-	=64-	=64-	=64-	=64-	=64-	=64-
.	.	2B-/	-re	2f\	-ſe-	.	.
.	.	.	.	.	.	4d/	.
.	.	2B-/	no-	4e\	-re-	1d/	.
*	*	*	*	*custos:e	*	*	*
.	.	.	.	4d\	.	.	.
!	!	!	!	!LO:LB:g=original	!	!	!
2r	.	1A/	-bis	1e\	-re	.	.
*	*ij	*	*	*	*	*	*
2A\	mi-	.	.	.	.	2c/	.
=65-	=65-	=65-	=65-	=65-	=65-	=65-	=65-
2G\	-ſe-	2r	.	2g\	no-	2d/	-bis
*	*	*	*ij	*	*	*	*ij
2A\	.	2F/	mi-	4f\	.	2a\	mi-
.	.	.	.	4e\	.	.	.
2.B-\	-re-	1.G/	-ſe-	2d/	-bis	2.g\	-ſe-
*	*	*	*	*	*Xij	*	*
.	.	.	.	2d/	mi-	.	.
*	*	*	*	*	*	*custos:b-	*
4A\	.	.	.	.	.	4a\	.
!	!	!	!	!	!	!LO:PB:g=original	!
=66-	=66-	=66-	=66-	=66-	=66-	=66-	=66-
2G\	.	.	.	2B-/	-ſe-	2b-\	-re-
2F\	-re	2A/	-re-	4c/	-re-	2.a\	-re
.	.	.	.	4d/	-re	.	.
2E-X\	no-	2B-/	-re	2e-X\	no-	.	.
.	.	.	.	.	.	4g\	.
*custos:D	*	*	*	*	*	*	*
2C/	.	2c/	no-	2e-\	-bis.	1g\	no-
!LO:LB:g=original	!	!	!	!	!	!	!
=67-	=67-	=67-	=67-	=67-	=67-	=67-	=67-
1D\	-bis	1A/	-bis	1d\	.	.	.
*	*Xij	*	*Xij	*	*	*	*
.	.	.	.	.	.	2f\	.
2r	.	2G/	mi-	1d\	.	[y00g\;<	-bis
*	*	*	*	*	*	*	*Xij
*	*	*custos:G	*	*	*	*	*
!	!	!LO:N:acc=#	!	!	!	!	!
!	!	!LO:TX:t=P:problem=# below	!	!	!	!	!
2G\	.	2Bn/	-ſe-	.	.	.	.
!	!	!LO:PB:g=original	!	!	!	!	!
=68-	=68-	=68-	=68-	=68-	=68-	=68-	=68-
2C/	.	2G/	-re-	2c/	.	.	.
!	!	!LO:TX:t=P:problem=# below	!	!	!	!	!
!	!	!LO:N:acc=#	!	!	!	!	!
2G\	.	2Bn/	-re	2d/	.	.	.
1C/	.	1c\	no-	1e-X\	.	.	.
=69-	=69-	=69-	=69-	=69-	=69-	=69-	=69-
1C/	.	1c\	-bis	1e-X\	.	.	.
*lig	*	*	*	*	*	*	*
!	!	!LO:TX:t=P:problem=# below	!	!	!	!	!
!LO:TX:t=P:problem=albo taka ligatura oktawowa, albo takie dziwne zanotowanie współbrzmienia oktawy	!	!LO:N:acc=#	!	!	!	!	!
1G\;	.	0.Bn/;	.	0.d\;<l	.	0.g\]yy	.
=70-	=70-	=70-	=70-	=70-	=70-	=70-	=70-
0GG/;	.	.	.	.	.	.	.
*Xlig	*	*	*	*	*	*	*
=71-	=71-	=71-	=71-	=71-	=71-	=71-	=71-
*	*	*	*	*	*	*k[b-]	*
00r	.	0r	.	1r	.	1d/	Qui
.	.	.	.	1G/	QVi	1g\	tol-
=72-	=72-	=72-	=72-	=72-	=72-	=72-	=72-
*	*	*	*	*custos:d	*	*	*
.	.	1G/	Qui	1d\	tol-	2g\	-lis
.	.	.	.	.	.	1b-\	pec-
!	!	!	!	!LO:LB:g=original	!	!	!
.	.	1d\	tol-	2d/	-lis	.	.
.	.	.	.	4f\	pec-	4a\	.
.	.	.	.	4eny\	.	4g\	.
=73-	=73-	=73-	=73-	=73-	=73-	=73-	=73-
0r	.	2d\	-lis	4f\	-ca-	2.a\	-ca-
.	.	.	.	4g\	.	.	.
.	.	2f\	pec-	2.a\	-ta	.	.
.	.	.	.	.	.	4b-\	.
.	.	2c\	-ca-	.	.	4cc\	.
.	.	.	.	4g\	.	4b-\	.
.	.	2e-X\	-ta	1g\	mun-	4a\	-ta
.	.	.	.	.	.	4g\	.
=74-	=74-	=74-	=74-	=74-	=74-	=74-	=74-
1D\	Qui	1d\	m(un)-	.	.	1a\	mun-
.	.	.	.	2f\	.	.	.
1G\	tol-	2B-/	-di	2g\	-di	1g\	-di
*	*	*	*	*	*ij	*	*
.	.	4G/	pec-	2d\	pec-	.	.
.	.	4A/	.	.	.	.	.
=75-	=75-	=75-	=75-	=75-	=75-	=75-	=75-
2G\	-lis	4B-/	.	2g\	-ca-	1r	.
.	.	4c/	.	.	.	.	.
2B-\	p(ec)-	2d\	-ca-	2.f\	.	.	.
2F\	-c(a)-	2c/	-ta	.	.	2r	.
.	.	.	.	4e\	-ta	.	.
2G\	-ta	1B-/	mun-	1d\	mun-	2d/	qui
=76-	=76-	=76-	=76-	=76-	=76-	=76-	=76-
*	*	*	*	*	*	*custos:f	*
1E-X\	mun-	.	.	.	.	1g\	tol:
.	.	4A/	.	2c\	.	.	.
*	*	*custos:A	*	*	*	*	*
.	.	4G/	.	.	.	.	.
!	!	!LO:LB:g=original	!	!	!	!LO:LB:g=original	!
0D\	-di	2A/	-di	1d	-di	2.f\	.
*	*	*	*ij	*	*Xij	*	*
.	.	2A/	pec-	.	.	.	.
.	.	.	.	.	.	4e/	.
=77-	=77-	=77-	=77-	=77-	=77-	=77-	=77-
.	.	1d\	-ca-	2r	.	4f\	.
.	.	.	.	.	.	4g\	.
.	.	.	.	2A/	pec-	4a\	.
.	.	.	.	.	.	4f\	.
0r	.	2d\	-ta	2B-/	-ca-	2g\	.
.	.	2f\	.	1A/	-ta	2a\	.
=78-	=78-	=78-	=78-	=78-	=78-	=78-	=78-
.	.	2c\	mun-	.	.	2f\	.
.	.	2.d\	.	2G/	mun-	4g\	.
.	.	.	.	.	.	4f\	.
*	*	*	*	*custos:A	*	*	*
1AA/	ſu-	.	.	1A/	-di	4e/	.
.	.	8c/L	.	.	.	4d/	.
.	.	8B-/J	.	.	.	.	.
.	.	2c/	.	.	.	2e/	.
!	!	!	!	!LO:LB:g=original	!	!	!
=79-	=79-	=79-	=79-	=79-	=79-	=79-	=79-
2.D/	-ſci-	2d,\	-di	1A/,	ſu-	2f/	.
*	*	*	*Xij	*	*	*	*
.	.	2d\	ſu-	.	.	2d/	ſu-
*custos:D	*	*	*	*	*	*	*
4C/	.	.	.	.	.	.	.
!LO:LB:g=original	!	!	!	!	!	!	!
4D/	.	2d\	-ſci-	2f\	-sci-	2a\	-sci-
4Eny/	.	.	.	.	.	.	.
2F\	-pe	2c\	-pe	2f\	-pe	2a\	-pe
=80-	=80-	=80-	=80-	=80-	=80-	=80-	=80-
2.C/	de-	2.c\	de-	2.e\	de-	4g\	de-
.	.	.	.	.	.	4f\	-p(re)-
.	.	.	.	.	.	4g\	-ca-
4C/	-p(re)-	4c/	-p(re)-	4e\	-p(re)-	4a\	-ti-
2C/	-ca-	2c/	-ca-	2e\	-ca-	2g\	-o-
2BB-/	-ti-	2d/	-ti-	2f\	-ti-	2d/	-ne(m)
=81-	=81-	=81-	=81-	=81-	=81-	=81-	=81-
2C/	-o-	4c/	-o-	2e\	-o-	2e/	no-
.	.	4B-/	.	.	.	.	.
*	*	*	*	*	*	*custos:e	*
2D/	-nem	4A/	-ne(m)	1d\	-ne(m)	2f/	.
.	.	4G/	.	.	.	.	.
!	!	!	!	!	!	!LO:LB:g=original	!
1AA/	nos-	1A/	n(ost)-	.	.	1e\	-ſtram
.	.	.	.	2c/	n(ost)-	.	.
=82-	=82-	=82-	=82-	=82-	=82-	=82-	=82-
1D\	-tram	2F/	-ram	2.d/	-ram	1d/	.
*	*	*custos:d	*	*	*	*	*
.	.	2A/	Qui	.	.	.	.
.	.	.	.	4c/	.	.	.
!	!	!LO:LB:g=original	!	!	!	!	!
2r	.	1d\	ſe-	2B-/	.	1r	.
2D/	Qui	.	.	2A/	.	.	.
=83-	=83-	=83-	=83-	=83-	=83-	=83-	=83-
1G\	ſe-	1d\	-des	0B-/	.	2r	.
.	.	.	.	.	.	2d/	Qui
1G\	-des	2r	.	.	.	1g\	ſe-
.	.	2d\	ad	.	.	.	.
=84-	=84-	=84-	=84-	=84-	=84-	=84-	=84-
2r	.	2e-X\	dex-	0r	.	1g\	-des
2G\	ad	1d\	-te-	.	.	.	.
2B-\	dex-	.	.	.	.	2r	.
2A\	-te-	2c/	-ra(m)	.	.	2a\	ad
=85-	=85-	=85-	=85-	=85-	=85-	=85-	=85-
2G\	-ra(m)	2B-/	p(at)-	2r	.	2b-\	dex-
2F\	p(at)-	2c/	-ris	2A/	Qui	2a\	-te-
*	*	*	*ij	*	*	*	*
2G\	-ris	2G/	ad	1d\	ſe-	2g\	-ra(m)
*custos:G	*	*	*	*	*	*	*
2D/	ad	2A/	dex-	.	.	2f\	p(at)-
!LO:LB:g=original	!	!	!	!	!	!	!
=86-	=86-	=86-	=86-	=86-	=86-	=86-	=86-
1G\	dex-	1B-/	-te-	2d\	-des	1g\	-ris
*	*	*	*	*custos:f	*	*	*
.	.	.	.	2d\	ad	.	.
!	!	!	!	!LO:PB:g=original	!	!	!
*	*	*	*	*	*	*	*ij
4F\	-te-	2c/	-ra(m)	2f\	dex-	2a\	ad
4G\	.	.	.	.	.	.	.
4A\	.	1c\	p(at)-	2.e\	-te-	2a\	dex-
4B-\	.	.	.	.	.	.	.
=87-	=87-	=87-	=87-	=87-	=87-	=87-	=87-
2c\	-ram	.	.	.	.	2g\	.
.	.	.	.	4d/	.	.	.
2G\	p(at)-	2B-/	-ris	1d\	-ram	2g\	-te-
*	*	*	*Xij	*	*	*	*
1A\	-ris	2r	.	.	.	1e\	-ra(m)
.	.	2A/	mi-	2c/	p(at)-	.	.
=88-	=88-	=88-	=88-	=88-	=88-	=88-	=88-
0r	.	2B-/	-ſe-	1d\	-ris	2d/	p(at)-
.	.	2G/	-re-	.	.	4g\	.
*	*	*	*	*	*	*custos:e	*
.	.	.	.	.	.	4f\	.
!	!	!	!	!	!	!LO:LB:g=original	!
.	.	2A/	-re	1r	.	4e/	.
.	.	.	.	.	.	4d/	.
.	.	2B-/	no-	.	.	1d/	.
=89-	=89-	=89-	=89-	=89-	=89-	=89-	=89-
*	*	*custos:A	*	*	*	*	*
1r	.	1A/	-bis	1e\	mi-	.	.
.	.	.	.	.	.	2c/	.
!	!	!LO:LB:g=original	!	!	!	!	!
!LO:TX:t=P:problem=kreska pseudotaktowa	!	!	!	!	!	!LO:TX:t=P:problem=kreska pseudotaktowa	!
*	*	*	*ij	*	*	*	*
1D\	mi-	2A/	mi-	2f\	-ſe-	1d/	-ris
*	*	*	*	*	*	*	*Xij
!	!	!LO:TX:t=P:problem=kreska pseudotaktowa	!	!LO:TX:t=P:problem=kreska pseudotaktowa	!	!	!
.	.	2B-/	-ſe-	2d\	-re-	.	.
=90-	=90-	=90-	=90-	=90-	=90-	=90-	=90-
2E-X\	-ſe-	2G/	-re-	2g\	-re	0r	.
2C/	-re-	1A/	.	4f\	no-	.	.
.	.	.	.	4e\	.	.	.
2D/	-re	.	.	2d\	-bis	.	.
!LO:TX:t=P:problem=kreska pseudotaktowa	!	!LO:TX:t=P:problem=kreska pseudotaktowa	!	!	!	!	!
*	*	*	*	*	*ij	*	*
2E-\	no-	1G/	-re	2c/	mi-	.	.
=91-	=91-	=91-	=91-	=91-	=91-	=91-	=91-
1D\	-bis	.	.	2d\	-ſe-	1A/	mi-
.	.	2F/	no-	1d\	-re-	.	.
!LO:TX:t=P:problem=kreska pseudotaktowa	!	!LO:TX:t=P:problem=kreska pseudotaktowa	!	!	!	!	!
0r	.	1G/	-bis	.	.	2B-/	-ſe-
*	*	*	*Xij	*	*	*	*
.	.	.	.	2e-X\	-re	2G/	-re-
=92-	=92-	=92-	=92-	=92-	=92-	=92-	=92-
.	.	2r	.	2c\	no-	2A/	-re
.	.	2d\	.	1d\	.	2B-/	no-
!LO:TX:t=P:problem=kreska pseudotaktowa	!	!	!	!	!	!	!
*	*ij	*	*	*	*	*	*
1A\	mi-	2f\	.	.	.	2A/	.
!	!	!LO:TX:t=P:problem=kreska pseudotaktowa	!	!	!	!	!
.	.	2e\	.	2c/	.	2a\	-bis
=93-	=93-	=93-	=93-	=93-	=93-	=93-	=93-
*	*	*	*	*	*	*	*ij
2B-\	.	2d\	.	2d/	-bis	2f\	mi-
*	*	*	*	*	*Xij	*	*
2G\	-ſe-	2.e\	.	2r	.	2g\	-ſe-
2A\	.	.	.	1r	.	2f\	-re-
.	.	4d/	.	.	.	.	.
!LO:TX:t=P:problem=kreska pseudotaktowa	!	!LO:TX:t=P:problem=kreska pseudotaktowa	!	!	!	!	!
2B-\	.	1d\	.	.	.	4e/	.
.	.	.	.	.	.	4d/	.
=94-	=94-	=94-	=94-	=94-	=94-	=94-	=94-
*custos:D	*	*	*	*	*	*	*
1A\	.	.	.	2r	.	1e\	.
*	*	*	*	*custos:f	*	*	*
!	!	!LO:TX:t=P:problem=# above	!	!	!	!	!
.	.	2c#X\	.	2eny\	.	.	.
!LO:PB:g=original	!	!	!	!LO:LB:g=original	!	!	!
!LO:TX:t=P:problem=kreska pseudotaktowa	!	!	!	!	!	!	!
1D\	-re-	2d\	.	2f\	.	2d/	.
!	!	!LO:TX:t=P:problem=kreska pseudotaktowa	!	!	!	!	!
.	.	2A/	mi-	2.d\	.	2f\	-re
=95-	=95-	=95-	=95-	=95-	=95-	=95-	=95-
2G\	-re	2B-/	-ſe-	.	.	2g\	no-
.	.	.	.	4e\	.	.	.
2F\	.	4A/	-re-	2f\	.	2.a\	.
.	.	4B-/	-re	.	.	.	.
2C/	no-	4cny/	.	2e\	.	.	.
*	*	*	*	*	*	*custos:g	*
.	.	4B-/	.	.	.	4g\	.
!	!	!	!	!	!	!LO:PB:g=original	!
!LO:TX:t=P:problem=kreska pseudotaktowa	!	!	!	!	!	!LO:TX:t=P:problem=od tego miejsca jest sześciolinia	!
2Eny/	.	4A/	.	2c/	.	1g\	.
*	*	*custos:A	*	*	*	*	*
!	!	!LO:TX:t=P:problem=kreska pseudotaktowa	!	!	!	!	!
.	.	4G/	.	.	.	.	.
!	!	!LO:PB:g=original	!	!	!	!	!
=96-	=96-	=96-	=96-	=96-	=96-	=96-	=96-
1D\	.	1A/	no-	2d/	.	.	.
.	.	.	.	2.d/	.	2f\	.
!LO:TX:t=P:problem=kreska pseudotaktowa	!	!	!	!	!	!	!
1G\	-bis	2G/	-bis	.	.	0g\	-bis
*	*Xij	*	*	*	*	*	*Xij
.	.	.	.	4c/	.	.	.
!	!	!LO:TX:t=P:problem=kreska pseudotaktowa	!	!	!	!	!
.	.	1d\	quo-	4B-/	.	.	.
.	.	.	.	4A/	.	.	.
=97-	=97-	=97-	=97-	=97-	=97-	=97-	=97-
2r	.	.	.	0B-/	.	.	.
1G\	Quo-	2d\	-ni-	.	.	.	.
!	!	!LO:TX:t=P:problem=kreska pseudotaktowa	!	!	!	!	!
.	.	1d\	-am	.	.	2r	.
!LO:TX:t=P:problem=kreska pseudotaktowa	!	!	!	!	!	!	!
2G\	-ni-	.	.	.	.	1g\	Quo-
=98-	=98-	=98-	=98-	=98-	=98-	=98-	=98-
1G\	-a(m)	2r	.	1r	.	.	.
.	.	2d\	tu	.	.	2g\	-ni-
2r	.	2c\	ſo-	2r	.	1g\	-am
!LO:TX:t=P:problem=kreska pseudotaktowa	!	!LO:TX:t=P:problem=kreska pseudotaktowa	!	!	!	!	!
2G\	tu	2d\	-lus	1d\	Quo-	.	.
=99-	=99-	=99-	=99-	=99-	=99-	=99-	=99-
2F\	ſo-	2A/	ſanc-	.	.	2r	.
2G\	-lus	2B-/	-tus	2d\	-ni-	2g\	tu
!	!	!	!	!	!	!LO:TX:t=P:problem=# below	!
2.D/	ſan-	2A/	.	1d\	-am	2.f#X\	ſo-
!	!	!LO:TX:t=P:problem=kreska pseudotaktowa	!	!	!	!	!
*	*	*	*ij	*	*	*	*
.	.	2d\	tu	.	.	.	.
!LO:TX:t=P:problem=kreska pseudotaktowa	!	!	!	!	!	!	!
4E\	.	.	.	.	.	4g\	-lus
=100-	=100-	=100-	=100-	=100-	=100-	=100-	=100-
2F\	.	2c\	ſo-	2r	.	2a\	ſan-
2.G\	.	4B-/	.	2d/	tu	2.b-\	-ctus
.	.	4A/	.	.	.	.	.
.	.	4G/	-lus	2B-/	ſo-	.	.
4F\	.	4A/	.	.	.	4a\	.
!	!	!LO:TX:t=P:problem=kreska pseudotaktowa	!	!	!	!	!
4E-X\	.	1B-/	ſanc-	1d\	-l(us)	4g\	.
!LO:TX:t=P:problem=kreska pseudotaktowa	!	!	!	!	!	!	!
4D/	.	.	.	.	.	4fny\	.
=101-	=101-	=101-	=101-	=101-	=101-	=101-	=101-
1E-\	.	.	.	.	.	1g\	.
.	.	4A/	.	2c/	ſan-	.	.
.	.	4G/	.	.	.	.	.
*custos:D	*	*	*	*	*	*	*
2D/	-ctus	2A/	-tus	2d/	-ctus	2f\	.
*	*	*	*Xij	*	*	*	*
*	*	*	*	*custos:f	*	*	*
!LO:LB:g=original	!	!	!	!	!	!	!
!LO:TX:t=P:problem=kreska pseudotaktowa	!	!LO:TX:t=P:problem=kreska pseudotaktowa	!	!	!	!	!
2D/	tu	2A/	tu	2d/	tu	2a\	tu
!	!	!	!	!LO:LB:g=original	!	!	!
=102-	=102-	=102-	=102-	=102-	=102-	=102-	=102-
*	*	*custos:c	*	*	*	*	*
4BB-/	ſo-	1d\	ſo-	1f\	ſo-	1b-\	ſo-
4C/	.	.	.	.	.	.	.
4D/	-lus	.	.	.	.	.	.
4Eny/	.	.	.	.	.	.	.
!	!	!LO:LB:g=original	!	!	!	!	!
2F\	d(o-	2c/	-lus	2f\	-lus	2a\	-lus
!LO:TX:t=P:problem=kreska pseudotaktowa	!	!LO:TX:t=P:problem=kreska pseudotaktowa	!	!	!	!	!
2G\	.	2B-/	d(o-	2d\	do-	2g\	do-
=103-	=103-	=103-	=103-	=103-	=103-	=103-	=103-
!	!	!	!	!	!	!LO:TX:t=P:problem=# above	!
2D/	-mi)-	2A/	-mi)-	2d\	-mi-	2f#X\	-mi-
*	*	*	*	*	*	*custos:a	*
2D/	-nus	2A/	-nus	2d\	-nus	2f#\	-nus
!	!	!	!	!	!	!LO:LB:g=original	!
!LO:TX:t=P:problem=kreska pseudotaktowa	!	!	!	!	!	!	!
1D\	tu	2r	.	2r	.	2r	.
!	!	!LO:TX:t=P:problem=kreska pseudotaktowa	!	!	!	!	!
.	.	2A/	tu	2d\	Tu	2a\	tu
=104-	=104-	=104-	=104-	=104-	=104-	=104-	=104-
4BB-/	ſo-	1d\	ſo-	2f\	ſo-	1b-\	ſo-
4C/	.	.	.	.	.	.	.
4D/	-lus	.	.	2.f\	-lus	.	.
4E/	.	.	.	.	.	.	.
!LO:TX:t=P:problem=kreska pseudotaktowa	!	!	!	!	!	!	!
1F\	.	2c\	-lus	.	.	2a\	-lus
.	.	.	.	4g\	.	.	.
!	!	!LO:TX:t=P:problem=kreska pseudotaktowa	!	!	!	!	!
.	.	2f\	al-	2a\	al-	2a\	al-
=105-	=105-	=105-	=105-	=105-	=105-	=105-	=105-
2G\	al-	4e\	-tiſ-	4g\	-tiſ-	1g\	-tiſ-
.	.	4d\	.	4f\	.	.	.
2B-\	-tiſ-	1d\	.	4e\	-si-	.	.
.	.	.	.	4d\	.	.	.
!LO:TX:t=P:problem=kreska pseudotaktowa	!	!	!	!	!	!	!
1A\	-si-	.	.	1e\	.	1a\	-si-
!	!	!LO:TX:t=P:problem=kreska pseudotaktowa	!	!	!	!	!
.	.	2c\	-si-	.	.	.	.
=106-	=106-	=106-	=106-	=106-	=106-	=106-	=106-
1D\	-mus	1d\	-mus	1f\	-mus	1a\	-mus
!LO:TX:t=P:problem=kreska pseudotaktowa	!	!LO:TX:t=P:problem=kreska pseudotaktowa	!	!	!	!LO:TX:t=P:problem=# below	!
1D\	Je-	1A/	Je-	2.d\	Je-	1f#X\	Je-
.	.	.	.	4c/	.	.	.
=107-	=107-	=107-	=107-	=107-	=107-	=107-	=107-
2G\	-ſu	2B-/	-ſu	4d/	.	2g\	-ſu
.	.	.	.	4e/	.	.	.
2F\	chri-	4A/	chri-	2f\	-ſu	2.a\	chri-
.	.	4B-/	.	.	.	.	.
2C/	-ste	4c/	.	2e\	.	.	.
.	.	4B-/	.	.	.	4g\	.
!LO:TX:t=P:problem=kreska pseudotaktowa	!	!	!	!	!	!	!
2E\	.	4A/	.	2c/	chri-	1g\	-ste
!	!	!LO:TX:t=P:problem=kreska pseudotaktowa	!	!	!	!	!
.	.	4G/	.	.	.	.	.
=108-	=108-	=108-	=108-	=108-	=108-	=108-	=108-
1D\	.	1A/	.	2d/	.	.	.
*	*	*	*	*custos:B-	*	*	*
.	.	.	.	2d/	.	2fny\	.
!	!	!	!	!LO:LB:g=original	!	!	!
!LO:TX:t=P:problem=kreska pseudotaktowa	!	!	!	!	!	!	!
1G\	.	2G/	-ste	1B-/	.	1g\	.
*	*	*custos:A	*	*	*	*	*
!	!	!LO:TX:t=P:problem=kreska pseudotaktowa	!	!	!	!	!
.	.	2d\	Cum	.	.	.	.
!LO:LB:g=original	!	!LO:LB:g=original	!	!	!	!	!
=109-	=109-	=109-	=109-	=109-	=109-	=109-	=109-
1F\	.	2A/	ſanc-	2c/	.	2r	.
.	.	2c/	-to	2A/	-ste	2a\	Cum
2r	.	2d\	ſpi-	2r	.	2f\	ſ(an)-
!LO:TX:t=P:problem=kreska pseudotaktowa	!	!LO:TX:t=P:problem=kreska pseudotaktowa	!	!	!	!	!
2G\	Cum	2B-/	-ri-	1d\	Cu(m)	2g\	-cto
=110-	=110-	=110-	=110-	=110-	=110-	=110-	=110-
2D/	ſ(an)-	2A/	-tu	.	.	2f\	ſp(i-
2F\	-cto	2A/	in	2c/	ſ(an)-	2f\	-ri-
2G\	ſp(i-	2B-/	glo-	2B-/	-cto	2d/	-t)u
*	*	*	*	*	*	*custos:d	*
!LO:TX:t=P:problem=kreska pseudotaktowa	!	!LO:TX:t=P:problem=kreska pseudotaktowa	!	!	!	!	!
2E\	-ri-	2c/	-ri-	2G/	ſpi-	2g\	cu(m)
!	!	!	!	!	!	!LO:LB:g=original	!
=111-	=111-	=111-	=111-	=111-	=111-	=111-	=111-
2D/	-t)u	2d\	-a-	1A/	-ri-	2d/	.
2D/	in	2d\	-de-	.	.	2f\	.
2E\	glo-	4c/	-i	2G/	-tu	2g\	.
.	.	4B-/	.	.	.	.	.
!LO:TX:t=P:problem=kreska pseudotaktowa	!	!	!	!	!	!	!
1F\	-ri-	4A/	.	2A/	.	2c/	.
!	!	!LO:TX:t=P:problem=kreska pseudotaktowa	!	!	!	!	!
.	.	4G/	.	.	.	.	.
=112-	=112-	=112-	=112-	=112-	=112-	=112-	=112-
.	.	2A/	pa-	1r	.	2d/	.
2G\	-a	2B-/	-tris	.	.	2d/	in
*	*	*	*ij	*	*	*	*
2G\	de-	2G/	in	2r	.	2e/	glo-
!LO:TX:t=P:problem=kreska pseudotaktowa	!	!LO:TX:t=P:problem=kreska pseudotaktowa	!	!	!	!	!
2F\	-i	2A/	glo-	2d\	in	2f/	-ri-
=113-	=113-	=113-	=113-	=113-	=113-	=113-	=113-
2E-X\	p(at)-	2B-/	-ri-	2e-X\	glo-	2g\	-a
2C/	-ris	2c/	-a	2e-\	-ri-	2g\	de-
2D/	.	2.A/	de-	2d\	-a	2f\	-i
!LO:TX:t=P:problem=kreska pseudotaktowa	!	!	!	!	!	!	!
2F\	.	.	.	2c/	de-	2.a\	pa-
!	!	!LO:TX:t=P:problem=kreska pseudotaktowa	!	!	!	!	!
.	.	4B-/	-i	.	.	.	.
=114-	=114-	=114-	=114-	=114-	=114-	=114-	=114-
2C/	.	4c/	pa-	2eny\	-i	.	.
.	.	4B-/	.	.	.	4g\	.
2E-X\	.	4A/	-tris	2c/	p(at)-	1g\	-tris
*	*	*	*Xij	*	*	*	*
*	*	*custos:A	*	*	*	*	*
.	.	4G/	.	.	.	.	.
!	!	!LO:LB:g=original	!	!	!	!	!
!LO:TX:t=P:problem=kreska pseudotaktowa	!	!LO:TX:t=P:problem=kreska pseudotaktowa	!	!	!	!	!
1D\	A-	1A/	A-	2d/	-ris	.	.
.	.	.	.	2d/	A-	2f\	A-
=115-	=115-	=115-	=115-	=115-	=115-	=115-	=115-
0GG/;	-men.	0G/;l	-men	0d\;<l	-men.	0g\;<l	-men.
==	==	==	==	==	==	==	==
*-	*-	*-	*-	*-	*-	*-	*-
!!!system-decoration: [s1,s2,s3,s4]
!!!RDF**kern: l = terminal long
!!!RDF**kern: > = above
!!!RDF**kern: < = below
!!!ENC: Mateusz Solarz
!!!END: 2022-03-11
!!!AIN: 3 empty 1 tenor
!!!ENC: Leszek Kubiak
!!!END: 2022-03-14
